X:1
T: The Sloe
R: polka
M: 2/4
K: D
L: 1/8
A | "D" dA de | "D" f>e dc  | "G" BA B/c/d/B/ | "D" AF EA |
"D" dA de | "Bm" f>e dc | "G" BA Bc | "D" d2 d :|
|: A | "G" ~BA FA | ~BA Fd/d/ | "D" dc/c/ cB/B/ | "G" BA Ad/d/ |
"D" dc/c/ "A" ce/e/ | "A" ed "D" df/f/| "Bm" fe "A" Bc| "D" d2 d :|]
